X:1
T:Der Schlesische oder Zwiefacher
C:Nach alte Tanzmelodie
R:Zwiefacher
Z:Bert Van Vreckem <http://flanders.blackmill.net/music/>
M:3/4
L:1/4
Q:1/4=144
K:D
|:         A A/G/ F/G/ | A2 d | [M:2/4]c/d/ e | d/e/ f | [M:3/4]A A/G/ F/G/ | A2 d | [M:2/4]c/d/ e/c/ | dz :| 
|: [M:3/4] A g/A/ g | A f/A/ f | [M:2/4] c/d/ e | d/e/ f | [M:3/4] A g/A/ g | A f/A/ f | [M:2/4] c/d/ e/c/ |1 dz :|2 d d/d'/ | 
|: [M:2/4] b g/b/ | a f/a/ | g e/g/ | f d//a//f//d// | e A/g/ | f d//a/4^g//a// | g/e/ c/A/ |1 d d/d'/ :|2 dz |]
